X: 303
P: Longways for as many as will
M: C|
L: 1/8
K: G
f2 a2- a2 (gf) | (gf) (ga) b2 a2 | g2 (fg) (ag) (fe) | d2 (ef) (gf) (ed) |\
(ef) (ga) (Bc) (dB) | (cd) e2 A2 a2 | (fg) a2 d2 f2 |[1 g2 (fe) (dc) (BA) :|[2 g6 |]

